X: 7737
T: Colonel Robertson
R: jig
M: 6/8
K: Dmajor
fed A2 d|BG/A/B A2 a|fed A2 d|cee e2 a|
fed A2 d|BGB A2 d|B*Gd c*Ae|d3 d2:|
afd f2 a|f>ef def|g>fg ecA|1 gfg e2 g|
afd f2 a|f>ef d2 A|B*Gd c*Ae|d3 d2:|
dfA egA|faf d2 A|B*Gd c*Ae|d3 d2||

